X: 26
T: You Married My Daughter But Yet You Didn't
I: You Married My Daughter But Yet You Didn't	R-30	G	reel
M: C|
R: reel
K: G
"G"B2d2 g2g2| "D"fgaf "G"g2g2| B2d2 "D"f2f2| "A7"efge "D"f2f2|
"G"B2d2 g2g2| "D"fgaf "G"g2g2| B2d2 "D"fgfe| dBA2 "G"G4 :|
|:"G"BcdB G2BB| G2BB d2c2| "D"ABcA F2AA| F2AA "G"e2d2|
"G"BcdB G2BB| G2BB d2c2| "D"ABcA F2fe| dBA2 "G"G4 :|
%%text Roaring Jelly  R-30
%%scale .5
%%text 08/25/99 

#include "RightHeader.h"
% ---------- set 17 ----------
% Johnny Don't Get Drunk (D) / Round the Horn (G) / Spootiskerry (G)
%%text Set 17
%%vskip -1cm
%%scale .64
